X:1
T:ໜາວ
T:ເນື້ອຮ້ອງ & ທຳນອງ : ຄຳຫຼ້າ ໜໍ່ແກ້ວ ນັກຮ້ອງຕົ້ນສະບັບ : ສົມຟອງ ຊົງມີໄຊ & ຄຳຫຼ້າ ໜໍ່ແກ້ວ
T:1968
T:© studiodavong
T:© studiodavong
C:Khamla NOKEO
Z:© studiodavong
L:1/8
Q:1/4=126
M:4/4
K:D
V:1 treble nm="Piano" snm="Pno."
V:1
"^Lamvong Lao""_(Intro) _________________________________________________________________________________________" z8 || %1
w: |
w: |
"D" !>![DFA]4 !>![DFA]4 | !>![DFA]4 z (ABd |"G" BAF)(A"A" Bded | %4
w: |||
w: |||
"D" d2) .[FAd].[FAd] .[FAd] z .[FAd] z |:"D""^A"{/F} A4{/F} A4 |{/F} A6 (Bd) |"G" B3 A (FE) D2 | %8
w: |(ສອຍ) ໜາວ ໜາວ|ໜາວ ໜາວ- *|ລົມ ຈະ ຕ້ອງ- * ຫົ່ມ|
w: ||||
"D"{/E} D8 | z2 D2 E2 F2 |"F#m"{AB} A6 F2 | A3 F (AF)(AB) |"Bm" F8 | z2 F2{/A} B2{/A} B2 || %14
w: ຜ້າ|ຜູ່ ໃດ ໜາວ|ຟ້າ ໜາວ|ຟ້າ ຈະ ຕ້ອງ- * ຝີງ- *|ໄຟ|ໜຸ່ມ ສາວ ໜາວ|
w: ||||||
"D" F6 [FA]E | F3 E"A" (FE)(FA) |"D" D8!dacoda! ||1"^B" z2 D2 E2{/A} F2 ||"D"{/F} A6 d2 | %19
w: ໃຈ ເຮັດ ຈັ່ງ|ໃດ ຈິ ເຊົາ- * ໜາວ- *|ເອີຍ|ສວັສ ດີ ນ້ອງ|ສາວ ນ້ອງ|
w: ໃຈ ມີ ຄູ່|ໄວ້ ຈິ ເຊົາ- * ໜາວ- *|ເອີຍ...|||
"G" B2 d B2 A F2 |"D" A8 | z2 D2 E2 F2 |"F#m" A4 z FAd |"G" B2 d B2 A F2 |"Em" E8 | %25
w: ໜາວ ໜາວ ໃຈ ມາ ຈັກ|ປີ|ຢ່າ ອາຍ ໜ່າຍ|ໜີ ໂປຣດ ຟັງ ວະ|ຈີ ວິ ທີ ແກ້ ໜາວ|ເອີຍ|
w: ||||||
 z2 F2{/F} B,2 D2 |"A" E4 z{/A} F2 A |"G" B3 A (Bd)(ef) |"D" d8 :|2"^C" z2 D2 E2{/A} F2 || %30
w: ຫາ ຄູ່ ຊູ|ເຊີຍ ແນບ ຂ|ເນີຍ ຈະ ເຫີຍ- * ໜາວ- *|ພລັນ|ສວັສ ດີ ອ້າຍ|
w: |||||
"D"{/F} A6 d2 |"G" B2 d B2 A F2 |"D" A8 | z2{/A} D2 E2 F2 |"F#m" A4 z FdB |"G" B2 d B2 A F2 | %36
w: ເອີຍ ຂໍ|ເຜີຍ ໜາວ ມາ ຕັ້ງ ເຈັດ|ປີ|ນ້ອງ ບໍ່ ເຄີຍ|ມີ ຜູ່ ຫວັງ ໄມ|ຕຣີ ຈັກ ທີ ກັບ ນ້ອງ|
w: ||||||
"Em" E8 | z2 F2 B,2 D2 |"A" E4 z{/A} F2 A |"G" B3 A Bd(ef) |"D" d8 :|3"^D" z2 D2 E2 A2 || %42
w: ເລີຍ|ໃຜ ຂາດ ຄູ່|ເຊີຍ ຮີບ ຈອງ|ເລີຍ ຢ່າ ປ່ອຍ ໃຫ້ ໜາວ- *|ຕາຍ|ໜຸ່ມ ສາວ ທັງ|
w: ||||||
"D"{/F} A6 d2 |"G" B2 d B2 A F2 |"D" A8 | z2 D2 E2{/F} B2 |"F#m" A4 z FAd |"G" B2 d B2 A{/A} F2 | %48
w: ຫຼາຍ ໝັ້ນ|ໝາຍ ໄວ້ ນັ້ນ ຈົ່ງ ແຕ່ງ|ງານ|ຢ່າ ມົວ ໜາວ|ກັນ ກອດ ໝອນ ເພີ້|ຝັນ ເຖິງ ກັນ ຫວານ ຊື່ນ|
w: ||||||
"Em" E8 | z2 F2{/F} B,2 D2 |"A" E4 z F2 A |"G" B3 A Bd(ef) |"D" d8 :| %53
w: ເຊີຍ|ຫາ ຄູ່ ເຖີດ|ເອີຍ ຢ່າ ນອນ|ເສີຍ ເພື່ອນ ເອີຍ ຈະ ໜາວ- *|ຕາຍ|
w: |||||
O"D""^E" z2"_(Coda) ______________________________________________________________________________________" F2 A2 B2 | %54
w: |
w: |
 F6 AE | F2 z"A" !>!A2 z !>!B2 |"D" !>!d2 z2 !arpeggio!!fermata![DAd]4!fine! |] %57
w: |||
w: |||

